humanity-icon-theme/Humanity/mimes/16/application-vnd.ms-excel.svg

<?xml version="1.0" encoding="UTF-8" standalone="no"?>
<!-- Created with Inkscape (http://www.inkscape.org/) -->
<svg
   xmlns:svg="http://www.w3.org/2000/svg"
   xmlns="http://www.w3.org/2000/svg"
   xmlns:xlink="http://www.w3.org/1999/xlink"
   version="1.0"
   width="16"
   height="16"
   id="svg3480">
  <defs
     id="defs3482">
    <linearGradient
       id="linearGradient4711-257-850-696-320-311-361-101-393">
      <stop
         id="stop5651"
         style="stop-color:#425a2d;stop-opacity:1"
         offset="0" />
      <stop
         id="stop5653"
         style="stop-color:#7f956d;stop-opacity:1"
         offset="1" />
    </linearGradient>
    <linearGradient
       x1="-51.786404"
       y1="53.623615"
       x2="-51.786404"
       y2="2.9062471"
       id="linearGradient3453"
       xlink:href="#linearGradient4711-257-850-696-320-311-361-101-393"
       gradientUnits="userSpaceOnUse"
       gradientTransform="matrix(0.2768636,0,0,0.3050233,19.641,-0.68561)" />
    <linearGradient
       id="linearGradient4145-42-322-778-541-32-432-871-622">
      <stop
         id="stop5641"
         style="stop-color:#b5cc85;stop-opacity:1"
         offset="0" />
      <stop
         id="stop5643"
         style="stop-color:#9abe74;stop-opacity:1"
         offset="0.26238" />
      <stop
         id="stop5645"
         style="stop-color:#669f4d;stop-opacity:1"
         offset="0.704952" />
      <stop
         id="stop5647"
         style="stop-color:#47892b;stop-opacity:1"
         offset="1" />
    </linearGradient>
    <radialGradient
       cx="14.239056"
       cy="11.49049"
       r="18.000002"
       fx="14.239056"
       fy="11.49049"
       id="radialGradient3451"
       xlink:href="#linearGradient4145-42-322-778-541-32-432-871-622"
       gradientUnits="userSpaceOnUse"
       gradientTransform="matrix(0,1.0834925,-1.816687,0,24.708827,-13.135239)" />
    <linearGradient
       id="linearGradient3211">
      <stop
         id="stop3213"
         style="stop-color:#ffffff;stop-opacity:1"
         offset="0" />
      <stop
         id="stop3215"
         style="stop-color:#ffffff;stop-opacity:0"
         offset="1" />
    </linearGradient>
    <linearGradient
       x1="24"
       y1="1.9999999"
       x2="24"
       y2="46.01725"
       id="linearGradient3448"
       xlink:href="#linearGradient3211"
       gradientUnits="userSpaceOnUse"
       gradientTransform="matrix(0.2727267,0,0,0.302325,1.4545607,0.7441991)" />
    <linearGradient
       id="linearGradient8265-821-176-38-919-66-249">
      <stop
         id="stop2687"
         style="stop-color:#ffffff;stop-opacity:1"
         offset="0" />
      <stop
         id="stop2689"
         style="stop-color:#ffffff;stop-opacity:0"
         offset="1" />
    </linearGradient>
    <linearGradient
       x1="16.626165"
       y1="15.298182"
       x2="20.054544"
       y2="24.627615"
       id="linearGradient3441"
       xlink:href="#linearGradient8265-821-176-38-919-66-249"
       gradientUnits="userSpaceOnUse"
       gradientTransform="matrix(0.2394557,0,0,0.4823445,1.7530613,-1.8789938)" />
    <linearGradient
       id="linearGradient4267">
      <stop
         id="stop4269"
         style="stop-color:#c4c4c4;stop-opacity:1"
         offset="0" />
      <stop
         id="stop4271"
         style="stop-color:#c4c4c4;stop-opacity:0"
         offset="1" />
    </linearGradient>
    <linearGradient
       x1="35.516502"
       y1="4.8577352"
       x2="34.102982"
       y2="6.5436172"
       id="linearGradient3438"
       xlink:href="#linearGradient4267"
       gradientUnits="userSpaceOnUse"
       gradientTransform="matrix(0.3428665,0,0,0.3408721,-0.6875871,0.3295305)" />
    <linearGradient
       id="linearGradient4000">
      <stop
         id="stop4002"
         style="stop-color:#000000;stop-opacity:1"
         offset="0" />
      <stop
         id="stop4004"
         style="stop-color:#000000;stop-opacity:0"
         offset="1" />
    </linearGradient>
    <linearGradient
       x1="75.854454"
       y1="28"
       x2="91"
       y2="12"
       id="linearGradient3474"
       xlink:href="#linearGradient4000"
       gradientUnits="userSpaceOnUse"
       gradientTransform="matrix(0.384083,0,0,0.3261514,-20.840189,1.8166154)"
       spreadMethod="reflect" />
    <linearGradient
       id="linearGradient5293">
      <stop
         id="stop5295"
         style="stop-color:#ffffff;stop-opacity:1"
         offset="0" />
      <stop
         id="stop5297"
         style="stop-color:#ffffff;stop-opacity:0"
         offset="1" />
    </linearGradient>
    <linearGradient
       x1="75.854454"
       y1="28"
       x2="91"
       y2="12"
       id="linearGradient3471"
       xlink:href="#linearGradient5293"
       gradientUnits="userSpaceOnUse"
       gradientTransform="matrix(0.384083,0,0,0.3261513,-20.79845,0.7771895)"
       spreadMethod="reflect" />
    <linearGradient
       id="linearGradient3759">
      <stop
         id="stop3761"
         style="stop-color:#000000;stop-opacity:1"
         offset="0" />
      <stop
         id="stop3763"
         style="stop-color:#000000;stop-opacity:0"
         offset="1" />
    </linearGradient>
    <linearGradient
       x1="-43.304745"
       y1="34.497406"
       x2="-25.365585"
       y2="20.126789"
       id="linearGradient3467"
       xlink:href="#linearGradient3759"
       gradientUnits="userSpaceOnUse"
       gradientTransform="matrix(0.3235294,0,0,0.3548387,22.238117,-2.0365369)"
       spreadMethod="reflect" />
    <linearGradient
       id="linearGradient2587">
      <stop
         id="stop2589"
         style="stop-color:#355129;stop-opacity:1"
         offset="0" />
      <stop
         id="stop2591"
         style="stop-color:#7c8763;stop-opacity:1"
         offset="1" />
    </linearGradient>
    <linearGradient
       x1="24.239185"
       y1="44.110138"
       x2="24.239185"
       y2="0.19081046"
       id="linearGradient2615"
       xlink:href="#linearGradient2587"
       gradientUnits="userSpaceOnUse"
       gradientTransform="matrix(0.3659016,0,0,0.3672603,0.304519,-0.727273)" />
    <linearGradient
       id="linearGradient8589">
      <stop
         id="stop8591"
         style="stop-color:#fefefe;stop-opacity:1"
         offset="0" />
      <stop
         id="stop8593"
         style="stop-color:#cbcbcb;stop-opacity:1"
         offset="1" />
    </linearGradient>
    <linearGradient
       x1="32.892288"
       y1="8.0590115"
       x2="36.358372"
       y2="5.4565363"
       id="linearGradient3444"
       xlink:href="#linearGradient8589"
       gradientUnits="userSpaceOnUse"
       gradientTransform="matrix(0.3091956,0,0,0.3766935,0.4761461,0.1071779)" />
  </defs>
  <g
     id="layer1">
    <path
       d="M 1.5,0.4999664 C 4.0206756,0.4999664 7.4205035,0.4999664 9.9411815,0.4999664 C 10.383361,0.6617599 12.879694,2.6328115 13.500013,3.9090875 C 13.500013,7.8153335 13.500039,11.593785 13.500039,15.500034 C 9.8333455,15.500034 5.1666926,15.500034 1.5,15.500034 C 1.5,10.500011 1.5,5.4999875 1.5,0.4999664 z"
       id="path4160"
       style="fill:url(#radialGradient3451);fill-opacity:1;fill-rule:nonzero;stroke:url(#linearGradient3453);stroke-width:0.99992192;stroke-linecap:butt;stroke-linejoin:round;marker:none;marker-start:none;marker-mid:none;marker-end:none;stroke-miterlimit:4;stroke-dasharray:none;stroke-dashoffset:0;stroke-opacity:1;visibility:visible;display:inline;overflow:visible;enable-background:accumulate" />
    <path
       d="M 12.5,4.2150736 C 12.5,7.6004717 12.5,11.114602 12.5,14.500001 C 9.500001,14.500001 5.5000009,14.500001 2.5,14.500001 C 2.5,10.166664 2.5,5.8333326 2.5,1.5 C 4.5623569,1.5 7.6738997,1.5 9.7362577,1.5"
       id="path2435"
       style="opacity:0.4;fill:none;fill-opacity:1;stroke:url(#linearGradient3448);stroke-width:0.99999994;stroke-linecap:butt;stroke-linejoin:miter;stroke-miterlimit:4;stroke-dasharray:none;stroke-dashoffset:0;stroke-opacity:1;display:inline" />
    <path
       d="M 2.5238093,0.99999996 C 2.2344802,0.99999996 2,1.4723225 2,2.0551278 L 2,9.77264 C 2.0006633,9.8375644 2.0147975,9.898961 2.0389717,9.9419263 C 2.0631449,9.9848916 2.0951471,10.005497 2.1272107,9.9987385 L 12.902721,6.5620336 C 12.95815,6.5444258 12.999225,6.4489566 13,6.3359346 L 13,4.2589134 C 13,4.2589134 9.494977,0.99999996 9.494977,0.99999996 L 2.5238093,0.99999996 z"
       id="path3879"
       style="opacity:0.2;fill:url(#linearGradient3441);fill-opacity:1;fill-rule:evenodd;stroke:none;stroke-width:1.00213289;stroke-linecap:round;stroke-linejoin:round;stroke-miterlimit:4;stroke-dasharray:none;stroke-dashoffset:0;stroke-opacity:1" />
    <path
       d="M 9.7907032,0.49996655 C 10.273093,0.66176251 12.864657,2.504091 13.541387,3.7803849 C 13.541387,7.6866881 13.541387,4.0617877 13.541387,7.968091 C -0.32613212,13.329645 1.4602649,0.49996655 9.7907032,0.49996655 z"
       id="path3883"
       style="fill:none;stroke:url(#linearGradient3438);stroke-width:0.99992192;stroke-linecap:butt;stroke-linejoin:round;stroke-miterlimit:4;stroke-dasharray:none;stroke-dashoffset:0;stroke-opacity:1;display:inline" />
    <path
       d="M 5.854166,5 C 4.5692501,6.8160152 3.2849154,8.6343362 1.9999995,10.450351 C 1.9999995,12.299443 1.9999995,14.150909 1.9999995,16 C 5.0520899,16 8.1041596,16 11.15625,16 C 12.000672,14.806547 12.130828,14.624621 13,13.396189 C 13,11.719322 13,10.048896 13,8.3650952 C 10.477954,7.1769308 7.491932,5.7715696 5.854166,5 z"
       id="path3743"
       style="opacity:0.1;fill:url(#linearGradient3474);fill-opacity:1;fill-rule:nonzero;stroke:none;stroke-width:0.91176528;stroke-linecap:butt;stroke-linejoin:miter;marker:none;marker-start:none;marker-mid:none;marker-end:none;stroke-miterlimit:4;stroke-dasharray:none;stroke-dashoffset:0;stroke-opacity:1;visibility:visible;display:inline;overflow:visible;enable-background:accumulate" />
    <path
       d="M 5.854166,4 C 4.5692501,5.816015 3.2849154,7.6343357 1.9999995,9.4503499 C 1.9999995,11.299444 1.9999995,13.150907 1.9999995,15 C 5.0520899,15 8.1041596,15 11.15625,15 C 12.000672,13.806547 12.130828,13.624621 13,12.396188 C 13,10.719321 13,9.0488957 13,7.3650958 C 10.477954,6.1769315 7.491932,4.7715705 5.854166,4 z"
       id="path3697"
       style="opacity:0.4;fill:url(#linearGradient3471);fill-opacity:1;fill-rule:nonzero;stroke:none;stroke-width:0.91176528;stroke-linecap:butt;stroke-linejoin:miter;marker:none;marker-start:none;marker-mid:none;marker-end:none;stroke-miterlimit:4;stroke-dasharray:none;stroke-dashoffset:0;stroke-opacity:1;visibility:visible;display:inline;overflow:visible;enable-background:accumulate" />
    <path
       d="M 6.1425289,5.8031806 L 5.7381183,6.3576157 L 7.8814994,7.3999543 L 8.2859119,6.8455192 L 6.1425289,5.8031806 z M 5.3337058,6.9009633 L 4.9292943,7.4553983 L 7.0726764,8.4977369 L 7.4770879,7.9433019 L 5.3337058,6.9009633 z M 8.9026394,7.1449145 L 8.498228,7.6993496 L 10.641611,8.7416882 L 11.046022,8.187253 L 8.9026394,7.1449145 z M 4.5248828,8.0098334 L 4.1103604,8.5642695 L 6.2537424,9.6066079 L 6.6682649,9.0521717 L 4.5248828,8.0098334 z M 8.0938165,8.242697 L 7.689405,8.7971322 L 9.8327866,9.8394709 L 10.237199,9.2850358 L 8.0938165,8.242697 z M 11.66275,8.4866483 L 11.248228,9.0299948 L 12.835544,9.8062043 C 12.835544,9.5532898 12.835544,9.3051896 12.835544,9.0521717 L 11.66275,8.4866483 z M 3.7059489,9.1187043 L 3.3015374,9.6620505 L 5.4449185,10.704391 L 5.8493309,10.161043 L 3.7059489,9.1187043 z M 7.2849926,9.3515669 L 6.8704711,9.906003 L 9.0138528,10.948342 L 9.4283751,10.393906 L 7.2849926,9.3515669 z M 10.843816,9.5844309 L 10.439405,10.138866 L 12.582786,11.181204 L 12.835544,10.837455 C 12.835544,10.740899 12.835544,10.645755 12.835544,10.549148 L 10.843816,9.5844309 z M 2.8971249,10.216487 L 2.4927134,10.770922 L 4.6360954,11.813261 L 5.0405069,11.258826 L 2.8971249,10.216487 z M 6.4660586,10.460438 L 6.0616471,11.003785 L 8.2050292,12.046125 L 8.6094412,11.502777 L 6.4660586,10.460438 z M 10.034992,10.693301 L 9.6305809,11.236649 L 11.773963,12.278987 L 12.178375,11.73564 L 10.034992,10.693301 z M 2.1590727,11.369713 C 2.1590727,11.617438 2.1590727,11.86493 2.1590727,12.112656 L 3.8171615,12.922132 L 4.221573,12.367697 L 2.1590727,11.369713 z M 5.6572356,11.558221 L 5.2528241,12.112656 L 7.3962052,13.154995 L 7.8006177,12.60056 L 5.6572356,11.558221 z M 9.2160595,11.791084 L 8.811647,12.345519 L 10.95503,13.387858 L 11.359441,12.833422 L 9.2160595,11.791084 z M 4.8383017,12.667092 L 4.4338902,13.221527 L 6.5772713,14.263866 L 6.9816837,13.709431 L 4.8383017,12.667092 z M 2.1590727,12.855599 C 2.1590727,13.107023 2.1590727,13.358208 2.1590727,13.609632 L 3.0083375,14.019914 L 3.41275,13.465478 L 2.1590727,12.855599 z M 8.4072352,12.899955 L 8.0028239,13.45439 L 10.146206,14.496728 L 10.550618,13.942293 L 8.4072352,12.899955 z M 4.0294777,13.764873 L 3.6250662,14.319309 L 4.6765363,14.82939 C 5.1685717,14.82939 5.6606043,14.82939 6.1526388,14.82939 L 6.1728597,14.807212 L 4.0294777,13.764873 z M 7.5984114,13.997736 L 7.1838899,14.552172 L 7.7500659,14.82939 C 8.2690625,14.82939 8.7880555,14.82939 9.3070518,14.82939 L 7.5984114,13.997736 z M 2.1590727,14.352575 C 2.1590727,14.511563 2.1590727,14.670401 2.1590727,14.82939 C 2.243326,14.82939 2.3275784,14.82939 2.4118307,14.82939 L 2.603926,14.574349 L 2.1590727,14.352575 z"
       id="path6223"
       style="opacity:0.1;fill:url(#linearGradient3467);fill-opacity:1;fill-rule:evenodd;stroke:none;stroke-width:0.99999994px;stroke-linecap:butt;stroke-linejoin:miter;marker:none;marker-start:none;marker-mid:none;marker-end:none;stroke-miterlimit:4;stroke-dasharray:none;stroke-dashoffset:0;stroke-opacity:1;visibility:visible;display:inline;overflow:visible;enable-background:accumulate" />
    <path
       d="M 11,13 C 10.356698,13 9.7133955,13 9.0700933,13 C 8.52674,11.991336 7.983385,10.982672 7.440031,9.9740082 C 6.896676,10.982672 6.353324,11.991336 5.809969,13 C 5.206646,13 4.603324,13 4,13 C 4.806854,11.624715 5.613708,10.249429 6.420562,8.8741448 C 5.670041,7.5827635 4.919523,6.2913812 4.169004,5 C 4.790499,5 5.411994,5 6.03349,5 C 6.531413,5.9594164 7.029335,6.9188328 7.527258,7.8782492 C 8.014278,6.9188328 8.5012982,5.9594164 8.9883181,5 C 9.5952758,5 10.202233,5 10.80919,5 C 10.049585,6.3223888 9.289979,7.6447786 8.5303739,8.9671684 C 9.3535822,10.311445 10.176792,11.655723 11,13 z"
       id="path3476"
       style="font-size:31.35451508px;font-style:normal;font-variant:normal;font-weight:bold;font-stretch:normal;opacity:0.4;fill:#ffffff;fill-opacity:1;stroke:none;stroke-width:1px;stroke-linecap:butt;stroke-linejoin:miter;stroke-opacity:1;font-family:Droid Sans;-inkscape-font-specification:Droid Sans Bold" />
    <path
       d="M 11,12 C 10.356698,12 9.7133955,12 9.0700933,12 C 8.52674,10.991336 7.983385,9.982672 7.440031,8.9740082 C 6.896676,9.982672 6.353324,10.991336 5.809969,12 C 5.206646,12 4.603324,12 4,12 C 4.806854,10.624715 5.613708,9.2494293 6.420562,7.8741448 C 5.670041,6.5827635 4.919523,5.2913812 4.169004,4 C 4.790499,4 5.411994,4 6.03349,4 C 6.531413,4.9594164 7.029335,5.9188328 7.527258,6.8782492 C 8.014278,5.9188328 8.5012982,4.9594164 8.9883181,4 C 9.5952758,4 10.202233,4 10.80919,4 C 10.049585,5.3223888 9.289979,6.6447786 8.5303739,7.9671684 C 9.3535822,9.3114454 10.176792,10.655723 11,12 z"
       id="path2612"
       style="font-size:31.35451508px;font-style:normal;font-variant:normal;font-weight:bold;font-stretch:normal;fill:url(#linearGradient2615);fill-opacity:1;stroke:none;stroke-width:1px;stroke-linecap:butt;stroke-linejoin:miter;stroke-opacity:1;font-family:Droid Sans;-inkscape-font-specification:Droid Sans Bold" />
    <path
       d="M 9.2941205,0.8409023 C 10.142028,3.6448055 9,5.0341186 9,5.0341186 C 9,5.0341186 10.892807,3.7827125 13.171354,4.9318145 C 15.11421,5.9116229 13.207429,3.9237905 13.129895,3.8027685 C 12.586944,2.9552643 10.707454,1.1696619 10.025256,0.8725867 C 9.9696235,0.8483603 9.5814385,0.8409023 9.2941205,0.8409023 z"
       id="path3330"
       style="opacity:0.3;fill:#000000;fill-opacity:1;fill-rule:evenodd;stroke:none;stroke-width:1px;stroke-linecap:butt;stroke-linejoin:miter;stroke-opacity:1;display:inline" />
    <path
       d="M 9.2941205,0.8409023 C 10.281641,0.8409023 10,4.0219212 10,4.0219212 C 10,4.0219212 12.272472,3.5211898 13.171354,4.9318145 C 13.334236,5.1874273 13.207429,3.9237905 13.129895,3.8027685 C 12.586944,2.9552643 10.707454,1.1696619 10.025256,0.8725867 C 9.9696235,0.8483603 9.5814385,0.8409023 9.2941205,0.8409023 z"
       id="path4474"
       style="fill:url(#linearGradient3444);fill-opacity:1;fill-rule:evenodd;stroke:none;stroke-width:1px;stroke-linecap:butt;stroke-linejoin:miter;stroke-opacity:1;display:inline" />
  </g>
</svg>

<?xml version="1.0" encoding="UTF-8" standalone="no"?>
<!-- Created with Inkscape (http://www.inkscape.org/) -->
<svg id="svg3480" xmlns="http://www.w3.org/2000/svg" height="16" width="16" version="1.0" xmlns:xlink="http://www.w3.org/1999/xlink">
 <defs id="defs3482">
  <linearGradient id="linearGradient3453" y2="2.9062" gradientUnits="userSpaceOnUse" x2="-51.786" gradientTransform="matrix(.27686 0 0 .30502 19.641 -.68561)" y1="53.624" x1="-51.786">
   <stop id="stop5651" style="stop-color:#425a2d" offset="0"/>
   <stop id="stop5653" style="stop-color:#7f956d" offset="1"/>
  </linearGradient>
  <radialGradient id="radialGradient3451" gradientUnits="userSpaceOnUse" cy="11.49" cx="14.239" gradientTransform="matrix(0 1.0835 -1.8167 0 24.709 -13.135)" r="18">
   <stop id="stop5641" style="stop-color:#b5cc85" offset="0"/>
   <stop id="stop5643" style="stop-color:#9abe74" offset=".26238"/>
   <stop id="stop5645" style="stop-color:#669f4d" offset=".70495"/>
   <stop id="stop5647" style="stop-color:#47892b" offset="1"/>
  </radialGradient>
  <linearGradient id="linearGradient3448" y2="46.017" gradientUnits="userSpaceOnUse" x2="24" gradientTransform="matrix(.27273 0 0 .30232 1.4546 .74420)" y1="2" x1="24">
   <stop id="stop3213" style="stop-color:#fff" offset="0"/>
   <stop id="stop3215" style="stop-color:#fff;stop-opacity:0" offset="1"/>
  </linearGradient>
  <linearGradient id="linearGradient3441" y2="24.628" gradientUnits="userSpaceOnUse" x2="20.055" gradientTransform="matrix(.23946 0 0 .48234 1.7531 -1.879)" y1="15.298" x1="16.626">
   <stop id="stop2687" style="stop-color:#fff" offset="0"/>
   <stop id="stop2689" style="stop-color:#fff;stop-opacity:0" offset="1"/>
  </linearGradient>
  <linearGradient id="linearGradient3438" y2="6.5436" gradientUnits="userSpaceOnUse" x2="34.103" gradientTransform="matrix(.34287 0 0 .34087 -.68759 .32953)" y1="4.8577" x1="35.517">
   <stop id="stop4269" style="stop-color:#c4c4c4" offset="0"/>
   <stop id="stop4271" style="stop-color:#c4c4c4;stop-opacity:0" offset="1"/>
  </linearGradient>
  <linearGradient id="linearGradient3474" y2="12" spreadMethod="reflect" gradientUnits="userSpaceOnUse" x2="91" gradientTransform="matrix(.38408 0 0 .32615 -20.84 1.8166)" y1="28" x1="75.854">
   <stop id="stop4002" offset="0"/>
   <stop id="stop4004" style="stop-opacity:0" offset="1"/>
  </linearGradient>
  <linearGradient id="linearGradient3471" y2="12" spreadMethod="reflect" gradientUnits="userSpaceOnUse" x2="91" gradientTransform="matrix(.38408 0 0 .32615 -20.798 .77719)" y1="28" x1="75.854">
   <stop id="stop5295" style="stop-color:#fff" offset="0"/>
   <stop id="stop5297" style="stop-color:#fff;stop-opacity:0" offset="1"/>
  </linearGradient>
  <linearGradient id="linearGradient3467" y2="20.127" spreadMethod="reflect" gradientUnits="userSpaceOnUse" x2="-25.366" gradientTransform="matrix(.32353 0 0 .35484 22.238 -2.0365)" y1="34.497" x1="-43.305">
   <stop id="stop3761" offset="0"/>
   <stop id="stop3763" style="stop-opacity:0" offset="1"/>
  </linearGradient>
  <linearGradient id="linearGradient2615" y2=".19081" gradientUnits="userSpaceOnUse" x2="24.239" gradientTransform="matrix(.36590 0 0 .36726 .30452 -.72727)" y1="44.11" x1="24.239">
   <stop id="stop2589" style="stop-color:#355129" offset="0"/>
   <stop id="stop2591" style="stop-color:#7c8763" offset="1"/>
  </linearGradient>
  <linearGradient id="linearGradient3444" y2="5.4565" gradientUnits="userSpaceOnUse" x2="36.358" gradientTransform="matrix(.30920 0 0 .37669 .47615 .10718)" y1="8.059" x1="32.892">
   <stop id="stop8591" style="stop-color:#fefefe" offset="0"/>
   <stop id="stop8593" style="stop-color:#cbcbcb" offset="1"/>
  </linearGradient>
 </defs>
 <g id="layer1">
  <path id="path4160" style="stroke-linejoin:round;stroke-width:.99992;stroke:url(#linearGradient3453);fill:url(#radialGradient3451)" d="m1.5 0.49997h8.4412c0.4418 0.16179 2.9388 2.1328 3.5588 3.4091v11.591h-12v-15z"/>
  <path id="path2435" style="opacity:.4;stroke:url(#linearGradient3448);fill:none" d="m12.5 4.2151v10.285h-10v-13h7.2363"/>
  <path id="path3879" style="opacity:.2;fill:url(#linearGradient3441);fill-rule:evenodd" d="m2.5238 1c-0.2893 0-0.5238 0.4723-0.5238 1.0551v7.7175c0.0007 0.065 0.0148 0.1264 0.039 0.1693 0.0241 0.043 0.0561 0.0631 0.0882 0.0568l10.776-3.4367c0.055-0.0176 0.096-0.113 0.097-0.2261v-2.077l-3.505-3.2589h-6.9712z"/>
  <path id="path3883" style="stroke-linejoin:round;stroke:url(#linearGradient3438);stroke-width:.99992;fill:none" d="m9.7907 0.49997c0.4823 0.16179 3.0743 2.0041 3.7503 3.2804v4.1877c-13.867 5.3619-12.081-7.4681-3.7503-7.4681z"/>
  <path id="path3743" style="opacity:.1;fill:url(#linearGradient3474)" d="m5.8542 5c-1.2849 1.816-2.5693 3.6343-3.8542 5.45v5.55h9.156c0.845-1.193 0.975-1.375 1.844-2.604v-5.0309c-2.522-1.1882-5.5081-2.5935-7.1458-3.3651z"/>
  <path id="path3697" style="opacity:.4;fill:url(#linearGradient3471)" d="m5.8542 4c-1.2849 1.816-2.5693 3.6343-3.8542 5.4503v5.5497h9.156c0.845-1.193 0.975-1.375 1.844-2.604v-5.0309c-2.522-1.1882-5.5081-2.5935-7.1458-3.3651z"/>
  <path id="path6223" style="opacity:.1;fill-rule:evenodd;fill:url(#linearGradient3467)" d="m6.1425 5.8032l-0.4044 0.5544 2.1434 1.0424 0.4044-0.5545-2.1434-1.0423zm-0.8088 1.0978l-0.4044 0.5544 2.1434 1.0423 0.4044-0.5544-2.1434-1.0423zm3.5689 0.2439l-0.4044 0.5544 2.1438 1.0424 0.404-0.5544-2.1434-1.0424zm-4.3777 0.8649l-0.4145 0.5545 2.1433 1.0423 0.4146-0.5544-2.1434-1.0424zm3.5689 0.2329l-0.4044 0.5544 2.1434 1.0424 0.4042-0.5545-2.1432-1.0423zm3.5692 0.2439l-0.415 0.5434 1.588 0.7762v-0.754l-1.173-0.5656zm-7.9571 0.6321l-0.4044 0.5434 2.1434 1.0419 0.4044-0.543-2.1434-1.0423zm3.5791 0.2329l-0.4145 0.5544 2.1434 1.042 0.4145-0.554-2.1434-1.0424zm3.559 0.2328l-0.405 0.5546 2.144 1.042 0.253-0.344v-0.288l-1.992-0.9646zm-7.9469 0.6316l-0.4044 0.555 2.1434 1.042 0.4044-0.554-2.1434-1.043zm3.569 0.244l-0.4045 0.544 2.1434 1.042 0.4044-0.543-2.1433-1.043zm3.5689 0.233l-0.4044 0.544 2.1434 1.042 0.404-0.543-2.143-1.043zm-7.8759 0.677v0.743l1.6581 0.809 0.4044-0.554-2.0625-0.998zm3.4981 0.188l-0.4044 0.555 2.1434 1.042 0.4044-0.554-2.1434-1.043zm3.5589 0.233l-0.4045 0.555 2.1434 1.042 0.404-0.555-2.1429-1.042zm-4.3778 0.876l-0.4044 0.555 2.1434 1.042 0.4044-0.555-2.1434-1.042zm-2.6792 0.189v0.754l0.8492 0.41 0.4045-0.555-1.2537-0.609zm6.2481 0.044l-0.4044 0.554 2.1432 1.043 0.405-0.555-2.1438-1.042zm-4.3777 0.865l-0.4044 0.554 1.0514 0.51h1.4761l0.0203-0.022-2.1434-1.042zm3.5689 0.233l-0.4145 0.554 0.5662 0.277h1.557l-1.7087-0.831zm-5.4393 0.355v0.476h0.2527l0.1921-0.255-0.4448-0.221z"/>
  <path id="path3476" style="opacity:.4;fill:#fff" d="m11 13h-1.9299c-0.5434-1.009-1.0867-2.017-1.6301-3.026-0.5433 1.009-1.0867 2.017-1.63 3.026h-1.81c0.8069-1.375 1.6137-2.751 2.4206-4.1259-0.7506-1.2913-1.5011-2.5827-2.2516-3.8741h1.8645c0.4979 0.9594 0.9958 1.9188 1.4938 2.8782 0.487-0.9594 0.974-1.9188 1.461-2.8782h1.8207c-0.759 1.3224-1.519 2.6448-2.2786 3.9672 0.8232 1.3438 1.6466 2.6888 2.4696 4.0328z"/>
  <path id="path2612" style="fill:url(#linearGradient2615)" d="m11 12h-1.9299c-0.5434-1.009-1.0867-2.0173-1.6301-3.026-0.5433 1.0087-1.0867 2.017-1.63 3.026h-1.81c0.8069-1.375 1.6137-2.7506 2.4206-4.1259-0.7506-1.2913-1.5011-2.5827-2.2516-3.8741h1.8645c0.4979 0.9594 0.9958 1.9188 1.4938 2.8782 0.487-0.9594 0.974-1.9188 1.461-2.8782h1.8207c-0.759 1.3224-1.519 2.6448-2.2786 3.9672 0.8232 1.3442 1.6466 2.6888 2.4696 4.0328z"/>
  <path id="path3330" style="opacity:.3;fill-rule:evenodd" d="m9.2941 0.8409c0.8479 2.8039-0.2941 4.1932-0.2941 4.1932s1.893-1.2514 4.171-0.1023c1.943 0.9798 0.036-1.008-0.041-1.129-0.543-0.8475-2.423-2.6331-3.105-2.9302-0.0554-0.02424-0.4436-0.0317-0.7309-0.0317z"/>
  <path id="path4474" style="fill:url(#linearGradient3444);fill-rule:evenodd" d="m9.2941 0.8409c0.9879 0 0.7059 3.181 0.7059 3.181s2.272-0.5007 3.171 0.9099c0.163 0.2556 0.036-1.008-0.041-1.129-0.543-0.8475-2.423-2.6331-3.105-2.9302-0.0554-0.02424-0.4436-0.0317-0.7309-0.0317z"/>
 </g>
</svg>
